packages/gestalt/src/icons/download.svg

<svg width="24" height="24" viewBox="0 0 24 24" xmlns="http://www.w3.org/2000/svg" ><path fill="#B5B5B5" d="M21,14.0002 C22.104,14.0002 23,14.8962 23,16.0002 L23,22.0002 C23,23.1042 22.104,24.0002 21,24.0002 L3,24.0002 C1.896,24.0002 1,23.1042 1,22.0002 L1,16.0002 C1,14.8962 1.896,14.0002 3,14.0002 C4.104,14.0002 5,14.8962 5,16.0002 L5,20.0002 L19,20.0002 L19,16.0002 C19,14.8962 19.896,14.0002 21,14.0002 Z M8.8154,6.987 L9.9914,8.165 L9.9914,2 C9.9914,0.896 10.8864,0 11.9914,0 C13.0954,0 13.9914,0.896 13.9914,2 L13.9914,8.178 L15.1874,6.985 C15.9694,6.204 17.2354,6.206 18.0154,6.987 C18.7954,7.769 18.7944,9.035 18.0134,9.816 L11.9884,15.829 L5.9844,9.813 C5.2044,9.031 5.2054,7.765 5.9864,6.985 C6.7694,6.204 8.0354,6.206 8.8154,6.987 Z"/></svg>

<svg width="24" height="24" xmlns="http://www.w3.org/2000/svg"><path fill="#B5B5B5" d="M21 14a2 2 0 0 1 2 2v6a2 2 0 0 1-2 2H3a2 2 0 0 1-2-2v-6a2 2 0 0 1 4 0v4h14v-4a2 2 0 0 1 2-2zM8.815 6.987l1.176 1.178V2a2 2 0 0 1 4 0v6.178l1.196-1.193a2 2 0 1 1 2.826 2.831l-6.025 6.013-6.004-6.016a2 2 0 0 1 2.831-2.826z"/></svg>
